svg/ui icons/UI_rating-75.svg

<?xml version='1.0' encoding='utf-8'?>
<svg xmlns="http://www.w3.org/2000/svg" width="20" height="20" viewBox="0 0 20 20" fill="none">
<path d="M10 0L12.2451 6.90983H19.5106L13.6327 11.1803L15.8779 18.0902L10 13.8197L4.12215 18.0902L6.36729 11.1803L0.489435 6.90983H7.75486L10 0Z" fill="currentColor" />
<path d="M10.0008 0L12.2459 6.90983H13.6327L13.6335 11.1803L13.6327 16.5L10.0008 13.8197L4.12295 18.0902L6.36809 11.1803L0.490234 6.90983H7.75566L10.0008 0Z" fill="currentColor" />
</svg>

<?xml version="1.0" encoding="UTF-8"?>
<svg id="Layer_1" data-name="Layer 1" xmlns="http://www.w3.org/2000/svg" width="20" height="20" viewBox="0 0 20 20">
  <path d="M10.0008,0l2.2451,6.9098h1.3868l.0008,4.2705-.0008,5.3197-3.6319-2.6803-5.8779,4.2705,2.2451-6.9099L.4902,6.9098h7.2654L10.0008,0Z" style="fill: currentColor"/>
  <path d="M10,0l2.2451,6.9098h7.2655l-5.8779,4.2705,2.2452,6.9099-5.8779-4.2705-5.8779,4.2705,2.2451-6.9099L.4894,6.9098h7.2654L10,0Z" style="fill: none; stroke: currentColor; stroke-miterlimit: 10; stroke-width: 1.5"/>
</svg>
